src/assets/img/fullscreen.svg

<?xml version="1.0" encoding="UTF-8" standalone="no"?>
<svg width="16px" height="16px" viewBox="0 0 16 16" version="1.1" xmlns="http://www.w3.org/2000/svg" xmlns:xlink="http://www.w3.org/1999/xlink">
    <!-- Generator: Sketch 46.2 (44496) - http://www.bohemiancoding.com/sketch -->
    <title>全屏</title>
    <desc>Created with Sketch.</desc>
    <defs></defs>
    <g id="Page-1" stroke="none" stroke-width="1" fill="none" fill-rule="evenodd">
        <g id="Artboard" transform="translate(-13.000000, -27.000000)" fill="#666666">
            <g id="全屏" transform="translate(13.000000, 27.000000)">
                <path d="M3,12.2928932 L3,9.5 C3,9.22385763 2.77614237,9 2.5,9 C2.22385763,9 2,9.22385763 2,9.5 L2,13.5 C2,13.7761424 2.22385763,14 2.5,14 L6.5,14 C6.77614237,14 7,13.7761424 7,13.5 C7,13.2238576 6.77614237,13 6.5,13 L3.70710678,13 L6.85355339,9.85355339 C7.04881554,9.65829124 7.04881554,9.34170876 6.85355339,9.14644661 C6.65829124,8.95118446 6.34170876,8.95118446 6.14644661,9.14644661 L3,12.2928932 Z M13,3.70714046 L13,6.5 C13,6.77614237 13.2238576,7 13.5,7 C13.7761424,7 14,6.77614237 14,6.5 L14,2.5 C14,2.22385763 13.7761424,2 13.5,2 L9.5,2 C9.22385763,2 9,2.22385763 9,2.5 C9,2.77614237 9.22385763,3 9.5,3 L12.2929269,3 L9.14676314,6.14646345 C8.95151029,6.34173489 8.95152537,6.65831738 9.14679682,6.85357023 C9.34206826,7.04882307 9.65865075,7.048808 9.8539036,6.85353655 L13,3.70714046 Z M13,9.5 C13,9.22385763 13.2238576,9 13.5,9 C13.7761424,9 14,9.22385763 14,9.5 L14,13.5 C14,13.7761424 13.7761424,14 13.5,14 L9.5,14 C9.22385763,14 9,13.7761424 9,13.5 C9,13.2238576 9.22385763,13 9.5,13 L13,13 L13,9.5 Z M3,6.5 C3,6.77614237 2.77614237,7 2.5,7 C2.22385763,7 2,6.77614237 2,6.5 L2,2.5 C2,2.22385763 2.22385763,2 2.5,2 L6.5,2 C6.77614237,2 7,2.22385763 7,2.5 C7,2.77614237 6.77614237,3 6.5,3 L3,3 L3,6.5 Z"></path>
            </g>
        </g>
    </g>
</svg>

<svg width="16" height="16" viewBox="0 0 16 16" xmlns="http://www.w3.org/2000/svg"><path d="M3 12.293V9.5a.5.5 0 0 0-1 0v4a.5.5 0 0 0 .5.5h4a.5.5 0 1 0 0-1H3.707l3.147-3.146a.5.5 0 1 0-.708-.708L3 12.293zm10-8.586V6.5a.5.5 0 1 0 1 0v-4a.5.5 0 0 0-.5-.5h-4a.5.5 0 0 0 0 1h2.793L9.147 6.146a.5.5 0 1 0 .707.708L13 3.707zM13 9.5a.5.5 0 1 1 1 0v4a.5.5 0 0 1-.5.5h-4a.5.5 0 1 1 0-1H13V9.5zm-10-3a.5.5 0 0 1-1 0v-4a.5.5 0 0 1 .5-.5h4a.5.5 0 0 1 0 1H3v3.5z" fill="#666" fill-rule="evenodd"/></svg>
